assets/svg/wallet_icon_wallet_emptysearch.svg

<svg width="48" height="48" viewBox="0 0 48 48" fill="none" xmlns="http://www.w3.org/2000/svg">
<path d="M21.0602 4.83188H14.1705C13.6062 4.83188 13.1046 4.47094 12.9255 3.93469L12.1137 1.5H23.118L22.3062 3.93469C22.2188 4.19597 22.0514 4.42317 21.8279 4.58417C21.6043 4.74517 21.3357 4.83182 21.0602 4.83188ZM27.214 38.8612V42.3122C27.214 43.7184 26.074 44.8584 24.6677 44.8584H13.4121C12.5065 44.8584 11.7715 45.5934 11.7715 46.4991H24.6677C26.9805 46.4991 28.8546 44.6241 28.8546 42.3122V39.5128L27.214 38.8612Z" fill="#E1EAF8"/>
<path d="M24.6685 46.828H10.5638C8.07383 46.828 6.04883 44.802 6.04883 42.313V37.0742C6.04883 36.8933 6.19602 36.7461 6.37695 36.7461C6.55789 36.7461 6.70508 36.8933 6.70508 37.0742V42.313C6.70508 44.4411 8.43664 46.1717 10.5638 46.1717H24.6685C26.7966 46.1717 28.5273 44.4402 28.5273 42.313V39.5136C28.5273 39.3327 28.6745 39.1855 28.8554 39.1855C29.0363 39.1855 29.1835 39.3327 29.1835 39.5136V42.313C29.1835 44.802 27.1585 46.828 24.6685 46.828Z" fill="#9A9A9A"/>
<path d="M28.5273 5.68687V8.81437C28.5273 8.99531 28.6745 9.1425 28.8554 9.1425C29.0363 9.1425 29.1835 8.99531 29.1835 8.81437V5.68687C29.1835 3.19688 27.1576 1.17188 24.6685 1.17188H10.5638C8.07383 1.17188 6.04883 3.19781 6.04883 5.68687V34.5225C6.04883 34.7034 6.19602 34.8506 6.37695 34.8506C6.55789 34.8506 6.70508 34.7034 6.70508 34.5225V5.68687C6.70508 3.55875 8.43664 1.82812 10.5638 1.82812H24.6685C26.7966 1.82812 28.5273 3.55969 28.5273 5.68687Z" fill="#9A9A9A"/>
<path d="M3.78798 20.8388C3.73923 20.8388 3.68954 20.8276 3.64267 20.8051L1.45454 19.7204C1.37816 19.6808 1.32036 19.6129 1.29361 19.5311C1.26686 19.4493 1.27329 19.3603 1.31152 19.2833C1.34975 19.2062 1.41671 19.1472 1.498 19.119C1.57928 19.0909 1.66838 19.0957 1.74611 19.1326L3.93329 20.2163C4.01123 20.255 4.07062 20.3231 4.0984 20.4055C4.12618 20.488 4.12007 20.5781 4.08142 20.656C4.05444 20.7109 4.01266 20.757 3.9608 20.7893C3.90894 20.8216 3.84908 20.8388 3.78798 20.8388ZM1.73204 29.3438C1.61111 29.3438 1.49392 29.2763 1.43673 29.1601C1.39851 29.082 1.39284 28.992 1.42096 28.9097C1.44909 28.8274 1.50871 28.7597 1.58673 28.7213L3.77954 27.647C3.85763 27.6088 3.94769 27.6031 4.02995 27.6312C4.11221 27.6593 4.17995 27.7189 4.21829 27.797C4.25652 27.8751 4.26219 27.9651 4.23406 28.0474C4.20594 28.1296 4.14632 28.1974 4.06829 28.2357L1.87642 29.3101C1.82954 29.3335 1.77986 29.3438 1.73204 29.3438ZM42.1852 14.3017C42.0717 14.3017 41.9611 14.2426 41.9002 14.1367C41.8787 14.0993 41.8647 14.0581 41.8592 14.0153C41.8536 13.9726 41.8565 13.9292 41.8678 13.8875C41.879 13.8459 41.8983 13.8069 41.9246 13.7728C41.9509 13.7386 41.9837 13.71 42.0211 13.6885L44.137 12.4717C44.2125 12.4291 44.3016 12.418 44.3852 12.4409C44.4687 12.4638 44.5398 12.5188 44.5829 12.5939C44.6261 12.669 44.6379 12.7581 44.6156 12.8418C44.5934 12.9255 44.539 12.997 44.4642 13.0407L42.3483 14.2576C42.2977 14.2876 42.2405 14.3017 42.1852 14.3017ZM35.9311 10.2863C35.8843 10.2865 35.8381 10.2766 35.7955 10.2573C35.7529 10.238 35.7149 10.2099 35.684 10.1747C35.6532 10.1395 35.6303 10.0982 35.6168 10.0534C35.6033 10.0086 35.5995 9.96145 35.6058 9.9151L35.9302 7.49541C35.9545 7.31541 36.1195 7.18885 36.2986 7.21416C36.4786 7.23854 36.6042 7.40354 36.5799 7.5826L36.2555 10.0023C36.2449 10.0808 36.2062 10.1529 36.1465 10.2051C36.0869 10.2573 36.0104 10.2862 35.9311 10.2863Z" fill="#0166FF"/>
<path d="M28.8616 35.5183C30.748 35.5183 32.5652 35.0746 34.1963 34.2362L34.931 34.9709C35.2086 35.2485 35.572 35.3868 35.9366 35.3868C36.3011 35.3868 36.6646 35.2485 36.9422 34.9709L39.6937 32.2194L45.6303 38.1561C46.3015 38.8272 46.3015 39.9198 45.6303 40.5921C45.3048 40.9176 44.8722 41.096 44.4129 41.096C43.9536 41.096 43.521 40.9165 43.1955 40.5921L38.3224 35.719C38.1697 35.5663 37.9233 35.5663 37.7705 35.719C37.6178 35.8717 37.6178 36.1181 37.7705 36.2709L42.6425 41.1428C43.1152 41.6155 43.744 41.8753 44.4118 41.8753C45.0807 41.8753 45.7084 41.6155 46.1811 41.1417C47.1566 40.1662 47.1566 38.5786 46.1811 37.6031L40.221 31.6431C40.5744 31.0934 40.5109 30.3509 40.0304 29.8704L39.289 29.129C40.1173 27.5058 40.5566 25.6975 40.5566 23.8223C40.5566 20.6984 39.3403 17.7619 37.1306 15.5522C34.922 13.3437 31.9844 12.1262 28.8605 12.1262C25.7367 12.1262 22.8001 13.3425 20.5905 15.5522C18.3819 17.7608 17.1645 20.6984 17.1645 23.8223C17.1645 26.9461 18.3808 29.8827 20.5905 32.0923C22.8001 34.3009 25.7378 35.5183 28.8616 35.5183ZM39.4785 30.4223C39.5984 30.5426 39.6658 30.7056 39.6658 30.8755C39.6658 31.0454 39.5984 31.2083 39.4785 31.3287L36.3892 34.418C36.2689 34.5379 36.1059 34.6052 35.936 34.6052C35.7661 34.6052 35.6032 34.5379 35.4828 34.418L34.9042 33.8393C35.7047 33.3544 36.4528 32.7702 37.1306 32.0912C37.8162 31.4056 38.4071 30.6486 38.8943 29.8381L39.4785 30.4223ZM21.1434 16.1041C23.2048 14.0427 25.9463 12.9066 28.8616 12.9066C31.777 12.9066 34.5185 14.0416 36.5799 16.1041C38.6412 18.1655 39.7773 20.9069 39.7773 23.8223C39.7773 26.7376 38.6424 29.4791 36.5799 31.5405C34.5185 33.6019 31.777 34.7379 28.8616 34.7379C25.9463 34.7379 23.2048 33.603 21.1434 31.5405C19.082 29.4791 17.946 26.7376 17.946 23.8223C17.946 20.9069 19.082 18.1666 21.1434 16.1041ZM10.0191 8.06751H21.1482C21.3634 8.06751 21.5384 7.89248 21.5384 7.67731C21.5384 7.46214 21.3634 7.28711 21.1482 7.28711H10.0191C9.80394 7.28711 9.62891 7.46214 9.62891 7.67731C9.62891 7.89248 9.80394 8.06751 10.0191 8.06751ZM10.0191 12.0699H18.1212C18.3364 12.0699 18.5114 11.8948 18.5114 11.6797C18.5114 11.4645 18.3364 11.2895 18.1212 11.2895H10.0191C9.80394 11.2895 9.62891 11.4645 9.62891 11.6797C9.62891 11.8948 9.80394 12.0699 10.0191 12.0699ZM10.0191 16.0734H15.7866C16.0018 16.0734 16.1768 15.8983 16.1768 15.6832C16.1768 15.468 16.0018 15.293 15.7866 15.293H10.0191C9.80394 15.293 9.62891 15.468 9.62891 15.6832C9.62891 15.8983 9.80394 16.0734 10.0191 16.0734Z" fill="#9A9A9A"/>
<path d="M35.3547 17.3305C31.7682 13.744 25.9541 13.744 22.3676 17.3305C18.7811 20.917 18.7811 26.7311 22.3676 30.3176C25.9541 33.9041 31.7682 33.9041 35.3547 30.3176C38.9412 26.7311 38.9412 20.9159 35.3547 17.3305ZM34.6345 18.6015C34.5983 18.6376 34.5554 18.6662 34.5081 18.6857C34.4609 18.7052 34.4102 18.7152 34.3591 18.7152C34.2588 18.7152 34.1595 18.6773 34.0826 18.6003C32.8819 17.3996 31.2921 16.6449 29.6064 16.4754C29.5555 16.4704 29.506 16.4553 29.4608 16.4311C29.4157 16.4069 29.3758 16.374 29.3434 16.3343C29.311 16.2947 29.2867 16.249 29.2719 16.1999C29.2572 16.1509 29.2523 16.0994 29.2575 16.0484C29.2625 15.9974 29.2776 15.948 29.3018 15.9028C29.326 15.8577 29.3589 15.8178 29.3986 15.7853C29.4382 15.7529 29.4839 15.7287 29.533 15.7139C29.582 15.6992 29.6335 15.6943 29.6845 15.6995C31.5485 15.8879 33.3067 16.7218 34.6345 18.0496C34.6708 18.0858 34.6996 18.1288 34.7192 18.1762C34.7389 18.2235 34.749 18.2743 34.749 18.3255C34.749 18.3768 34.7389 18.4276 34.7192 18.4749C34.6996 18.5223 34.6708 18.5653 34.6345 18.6015ZM36.0236 20.7676C35.969 20.7944 35.9099 20.8067 35.853 20.8067C35.7081 20.8067 35.5699 20.7264 35.5018 20.587C35.3849 20.3472 35.255 20.1138 35.1128 19.888C34.9979 19.7063 35.0526 19.4644 35.2343 19.3495C35.416 19.2347 35.6579 19.2893 35.7728 19.4711C35.93 19.7197 36.0749 19.9805 36.2031 20.2437C36.2979 20.4399 36.2176 20.6729 36.0236 20.7676Z" fill="#0166FF"/>
</svg>

<svg xmlns="http://www.w3.org/2000/svg" width="48" height="48" fill="none"><path fill="#E1EAF8" d="M21.06 4.832h-6.89c-.564 0-1.065-.361-1.245-.897L12.115 1.5h11.004l-.812 2.435a1.315 1.315 0 0 1-1.246.897m6.154 34.03v3.45a2.546 2.546 0 0 1-2.546 2.546H13.412c-.905 0-1.64.735-1.64 1.641h12.896a4.187 4.187 0 0 0 4.187-4.187v-2.8z"/><path fill="#9A9A9A" d="M24.669 46.828H10.564a4.52 4.52 0 0 1-4.515-4.515v-5.239a.328.328 0 0 1 .656 0v5.239a3.863 3.863 0 0 0 3.859 3.859h14.105a3.863 3.863 0 0 0 3.858-3.859v-2.8a.328.328 0 0 1 .656 0v2.8a4.52 4.52 0 0 1-4.514 4.515M28.527 5.687v3.127a.328.328 0 0 0 .656 0V5.687a4.52 4.52 0 0 0-4.514-4.515H10.564a4.52 4.52 0 0 0-4.515 4.515v28.836a.328.328 0 0 0 .656 0V5.687a3.863 3.863 0 0 1 3.859-3.859h14.105a3.863 3.863 0 0 1 3.858 3.859"/><path fill="#0166FF" d="M3.788 20.839a.34.34 0 0 1-.145-.034L1.455 19.72a.328.328 0 0 1 .291-.587l2.187 1.083a.328.328 0 0 1-.145.623m-2.056 8.505a.33.33 0 0 1-.311-.434.33.33 0 0 1 .166-.189l2.193-1.074a.328.328 0 0 1 .288.589L1.876 29.31a.3.3 0 0 1-.144.034m40.453-15.042a.328.328 0 0 1-.164-.614l2.116-1.216a.328.328 0 0 1 .327.569l-2.116 1.217a.3.3 0 0 1-.163.044m-6.254-4.016a.325.325 0 0 1-.314-.233.3.3 0 0 1-.011-.138l.324-2.42a.328.328 0 1 1 .65.087l-.325 2.42a.33.33 0 0 1-.324.284"/><path fill="#9A9A9A" d="M28.862 35.518c1.886 0 3.703-.443 5.334-1.282l.735.735c.278.278.641.416 1.006.416.364 0 .728-.139 1.005-.416l2.752-2.752 5.936 5.937a1.725 1.725 0 0 1 0 2.436 1.7 1.7 0 0 1-1.217.504c-.46 0-.892-.18-1.217-.504l-4.874-4.873a.39.39 0 1 0-.552.552l4.872 4.872a2.49 2.49 0 0 0 1.77.732 2.505 2.505 0 0 0 1.77-4.272l-5.961-5.96c.353-.55.29-1.292-.19-1.773l-.742-.741a11.64 11.64 0 0 0 1.268-5.307c0-3.124-1.217-6.06-3.426-8.27a11.62 11.62 0 0 0-8.27-3.426c-3.124 0-6.06 1.217-8.27 3.426a11.62 11.62 0 0 0-3.427 8.27c0 3.124 1.217 6.06 3.426 8.27a11.63 11.63 0 0 0 8.272 3.426m10.616-5.096a.64.64 0 0 1 0 .907l-3.089 3.089a.64.64 0 0 1-.906 0l-.579-.579c.8-.485 1.549-1.069 2.227-1.748a11.8 11.8 0 0 0 1.763-2.253zM21.143 16.104a10.85 10.85 0 0 1 7.719-3.197 10.84 10.84 0 0 1 7.718 3.197 10.85 10.85 0 0 1 3.197 7.718 10.84 10.84 0 0 1-3.197 7.719 10.85 10.85 0 0 1-7.718 3.197 10.84 10.84 0 0 1-7.719-3.197 10.85 10.85 0 0 1-3.197-7.719c0-2.915 1.136-5.655 3.197-7.718M10.02 8.068h11.13a.39.39 0 0 0 0-.78h-11.13a.39.39 0 0 0 0 .78m0 4.002h8.102a.39.39 0 0 0 0-.78H10.02a.39.39 0 0 0 0 .78m0 4.003h5.768a.39.39 0 0 0 0-.78h-5.768a.39.39 0 0 0 0 .78"/><path fill="#0166FF" d="M35.355 17.33a9.183 9.183 0 0 0-12.987 0 9.183 9.183 0 0 0 0 12.988 9.183 9.183 0 0 0 12.987 0c3.586-3.587 3.586-9.402 0-12.987m-.72 1.272a.39.39 0 0 1-.552-.002 7.4 7.4 0 0 0-4.477-2.125.39.39 0 1 1 .078-.776 8.2 8.2 0 0 1 4.95 2.35.39.39 0 0 1 0 .553m1.389 2.166a.39.39 0 0 1-.522-.18 7 7 0 0 0-.39-.7.391.391 0 0 1 .66-.417c.158.249.303.51.431.773a.39.39 0 0 1-.18.524"/></svg>
